X:1
T:A  ce matin
T:Pierre Certon
T:Source : Livre X de 28 chansons nouvelles à 4 parties---Paris---P.Attaingnant---1541. Editor : André Vierendeels (14/05/18). Notes : Original clefs : C1, C3, C3, F3 Original note values have been halved Editorial accidentals above the staff
T:A  ce matin
T:©
T:©
T:©
T:©
C:Pierre Certon
Z:©
%%score [ 1 [ 2 3 4 ] ]
L:1/8
Q:1/4=120
M:2/2
K:F
V:1 treble nm="Soprano" snm="S"
V:2 treble nm="Alto" snm="A"
V:3 treble-8 nm="Tenor 1" snm="T 1"
V:4 treble-8 nm="Tenor 2" snm="T 2"
V:1
 B6 A2 | A4 G4 | z2 F2 A2 A2 | B2 B2 cBAG | A2 d4 c2- | cB B4 A2 | B2 d2 c2 B2 | A2 B2 G2 G2 | %8
w: A ce|ma- tin,|ce se- roit|bon- n'es- trai- * * *|||ne, de des- ieu-|ner le beau iam-|
w: Du vin|su- ret|la grant bou-|teil- le plai- * * *|* * ne,-||ne, car doul- ce-|ment est de moy|
 B2 A2 c3 B | AG A4 GF | ED G4 F2 |[M:2/4] G4 :|[M:2/2] z2 G2 G2 G2 | F2 F2 G2 A2 | A2 B2 B2 B2- | %15
w: bon sa- * *|||lé,|a- voir bon|feu, le pain blanc|cha- pe- lé, a-|
w: a- val- * *|||lé,||||
 BA d4 c2 | d4 d4 | B2 B2 A3 G | A2 B4 AG | F2 F2 B2 B2 | A4 G4 | F2 F2 A3 B | c2 A4 G2 | A4 z4 |: %24
w: |com- pai-|gné, a- com- *|* pai- * *|gné de la bel-|le'au corps|gent, de la _|bel- le'au corps|gent,|
w: |||||||||
 B8 | B4 c4 | d4 z2 d2 | c2 c2 c2 B2 | A2 c4 B2 | c4 c4 | B2 B2 A4 | z2 d2 c2 A2 | B2 B2 A4 | %33
w: mais|tou- tes-|fois, a-|prez beu et gal-||lé, le|prin- ci- pal,|cest da- voir|de lar- gent,|
w: |||||||||
 A4 G2 B2- | B2 A3 G G2- |"^#" G2 F2 G4- | G8 :| %37
w: cest da- voir|_ de _ lar-|* * gent|_|
w: ||||
V:2
 D6 F2 | F4 D4 | z2 D2 F4- | F2 F2 F2 C2 | F4 G2 A2 |"^b" G2 E2 F4 | D2 D2 F2 F2- | FE D4 C2 | %8
w: A ce|ma- tin,|ce se-|* roit bon' n'es-|trai- * *||ne, de des- ieu-||
w: Du vin|su- ret|la grant|_ bou- teil- le|plai- * *||ne, car doul- ce-|* * ment est|
"^-natural""^-natural" D2 D2 E2 E2 | F3 E/D/ C2 F,2 | C4 D4 |[M:2/4] B,4 :|[M:2/2] z2 E2 D2 G,2 | %13
w: ner le beau iam-|bon- * * * *|* sa-|lé,|a- voir bon|
w: de moy a- val-|||lé,||
 A,2 D2 D2 E2 | F4 E2 D2- | DEFG A4 | F2 B4 A2- | A2 G2 A2 D2 | F6 E2 | D4 z2 D2 | F2 F2 B,2 C2 | %21
w: feu, le pain blanc|cha- pe- *|* * * * lé,|a- com- pai-|* * gné, a-|com- pai-|gné de|la bel- le'au corps|
w: ||||||||
 D2 D2 C2 F2 | E2 F2 D4 | D4 z4 |: D8 | G4 G4 | A4 z2 A2 | A2 A2 G2 G2 | A2 F2 G4 | E4 E2 E2 | %30
w: gent, de la bel-|* le'au corps|gent,|mais|tou- tes-|fois, a-|prez beu et gal-|* * lé,|le prin- ci-|
w: |||||||||
 DCDE F2 A2- | A2 G4 F2 | G2 D2 F3 F | F2 F2 E2 DC | DE F2 B,2 C2 | D4 B,4- | B,8 :| %37
w: pal, _ _ _ _ le|_ prin- ci-|pal, cest da- voir|de lar- * * *||* gent.|_|
w: |||||||
V:3
 G4 G2 A2- | ABcA B4 | A4 z2 d2 | d2 d2 c2 f2- | fedc defd |"^b" edcB c4 | B4 z2 d2 | c2 B4 AG | %8
w: A ce ma-||tin, ce|se- roit bon- n'es-||* * * * train-|ne, de|des- ieu- * *|
w: Du vin su-||ret la|grant bou- teil- le|_ _ _ _ _ _ _ _|* * * * plai-|ne, car|doul- ce _ _|
 F2 F2 G2 G2 | A2 FG AB c2- | cBAG A4 |[M:2/4] G4 :|[M:2/2] z2 G2 B2 c2 | d2 A2 B2 B2 | %14
w: ner le beau iam-|bon sa- * * * *||lé,|a- voir bon|feu, le pain blanc|
w: ment est de moy|a- val- * * * *||lé,|||
 cBcd ef g2 | f2 ed e4 | d4 z4 | d4 f3 e | dc d4 cB | A4 z2 B2 | c2 c2 G2 G2 | A2 F3 G A2- | %22
w: cha- * * * * * *|* * * pe-|lé,|a- com- *|* * pai- * *|gné de|la bel- le'au corps|gent, au _ _|
w: ||||||||
 ABcA B4 | A4 z4 |: G8 | d4 e4 | f4 z2 f2 | f2 f2 efge | fedc d4 | c4 z2 G2 | GABc de f2 | %31
w: _ _ _ _ corps|gent,|mais|tou- tes-|fois, a-|prez beu et _ _ _|_ _ _ _ gal-|lé, le|prin- * * * * * *|
w: |||||||||
 ed d4 c2 | d4 z2 d2 | c2 A2 c2 BA | G2 F2 G4 | A4 G4- | G8 :| %37
w: * * * ci-|pal, cest|da- voir de _ _|_ lar- *|* gent.|_|
w: ||||||
V:4
 G6 D2 | F4 G4 | z2 D2 D2 D2 | B,2 B,2 F3 E | DC B,2 B2 F2 | G4 F4 | B,4 z2 B2 |"^b" F2 G2 E4 | %8
w: A ce|ma- tin,|ce se- roit|bon- n'es- trai- *|||ne, de|des- ieu- *|
w: Du vin|su- ret|la grant bou-|teil- le plai- *|||ne, car|doul- ce- ment|
 B,2 D2 C2 C2 | F6 ED | C2 E2 D4 |[M:2/4] G4 :|[M:2/2] z2 C2 G2 E2 | D2 D2 G2 G2 | FGAB c2 G2 | %15
w: ner le beau iam-|bon _ _|_ _ sa-|lé,|a- voir bon|feu, le pain blanc|cha- * * * * *|
w: est de moy a-|val- * *||lé,||||
 d2 B2 A4 | D2 G4 F2 | G4 D4 | z2 B,2 B,2 C2 | D2 D2 G2 G2 | F4 _E4 | D2 D2 F3 G | A2 F2 G4 | %23
w: * * pe-|lé a- com-|pai- gné|de la bel-|le'au corps gent, a-|com- pai-|gné de la _|bel- le'au corps|
w: ||||||||
 D4 z4 |: G8 | G4 E4 | D4 z2 D2 | F2 F2 C2 G2 | F2 A2 G4 | z2 C2 CDEF | G2 G2 D2 d2 | c2 B2 A4 | %32
w: gent.|mais|tou- tes-|fois, a-|prez beu et gal-|* * lé,|le prin- * * *|* ci- pal, le|prin- * ci-|
w: |||||||||
 G2 G2 F2 D2 | F2 F2 C2 G2- | GF D2 _E4 | D4 G4- | G8 :| %37
w: pal, cest d'a- voir|lar- gent, cest da-|* * voir lar-|* gent.|_|
w: |||||

